docs/img/directions-slider/3.svg

<svg width="80" height="80" viewBox="0 0 80 80" fill="none" xmlns="http://www.w3.org/2000/svg">
<g clip-path="url(#clip0_829:7553)">
<path d="M42.9413 22.7397C42.9413 22.0604 42.9029 21.3898 42.8306 20.7294H48.2051V18.3808H42.4166C41.591 15.0066 39.8296 11.9972 37.4245 9.64437L42.9833 3.30602L41.2176 1.75737L35.6449 8.11153C32.5844 5.79974 28.779 4.42723 24.6593 4.42723C20.8574 4.42723 17.3231 5.5962 14.3951 7.59359L8.83332 1.25195L7.06766 2.80061L12.5409 9.04141C9.93105 11.3604 7.98643 14.4137 7.03322 17.8754H1.84583V20.2239H6.55066C6.4373 21.0467 6.37734 21.8863 6.37734 22.7397V31.611H0V33.9595H6.37718V46.6848H1.84583V49.0334H6.37718V53.6812C6.37718 56.0597 6.83265 58.3337 7.66013 60.4205H0V62.7691H8.79168C10.0037 64.8841 11.6255 66.7341 13.5471 68.212L8.67268 72.8475L10.2912 74.5493L15.5462 69.5518C17.9112 70.9196 20.6089 71.7711 23.485 71.9547V79.871H25.8336V71.9547C28.7602 71.7679 31.5017 70.8886 33.8963 69.4785L39.7599 75.0548L41.3784 73.3531L35.8826 68.1267C37.6017 66.7835 39.0755 65.1396 40.2254 63.2747H50.0509V60.9261H41.4484C42.4082 58.7029 42.9414 56.2534 42.9414 53.6813V49.5389H48.2052V47.1903H42.9414V44.7135H40.5929V53.6813C40.5929 62.4838 33.4452 69.6451 24.6593 69.6451C15.8736 69.6451 8.72592 62.4838 8.72592 53.6813V22.7397C8.72592 13.9373 15.8736 6.77597 24.6593 6.77597C33.445 6.77597 40.5929 13.9373 40.5929 22.7397V36.6966H42.9414V34.4651H50.0509V32.1165H42.9414V22.7397H42.9413Z" fill="#C3167C"/>
<path d="M27.787 12.4545C23.2661 12.4545 19.5883 16.138 19.5883 20.6656C19.5883 25.1932 23.2661 28.8767 27.787 28.8767C32.3079 28.8767 35.9857 25.1932 35.9857 20.6656C35.9857 16.138 32.3079 12.4545 27.787 12.4545ZM27.787 26.5281C24.5611 26.5281 21.9368 23.8982 21.9368 20.6656C21.9368 17.433 24.5611 14.803 27.787 14.803C31.0128 14.803 33.6372 17.433 33.6372 20.6656C33.6372 23.8982 31.0128 26.5281 27.787 26.5281Z" fill="#C3167C"/>
<path d="M21.9369 39.4475C21.9369 37.1542 20.0735 35.2885 17.783 35.2885C15.4927 35.2885 13.6292 37.1542 13.6292 39.4475C13.6292 41.7408 15.4925 43.6067 17.783 43.6067C20.0735 43.6068 21.9369 41.7409 21.9369 39.4475V39.4475ZM15.9777 39.4475C15.9777 38.4492 16.7875 37.637 17.783 37.637C18.7785 37.637 19.5883 38.4493 19.5883 39.4475C19.5883 40.4459 18.7785 41.2581 17.783 41.2581C16.7877 41.2582 15.9777 40.4459 15.9777 39.4475V39.4475Z" fill="#C3167C"/>
<path d="M27.787 60.8378C31.1517 60.8378 33.8892 58.0964 33.8892 54.7268C33.8892 51.3572 31.1519 48.616 27.787 48.616C24.4221 48.616 21.6848 51.3574 21.6848 54.7268C21.6849 58.0966 24.4223 60.8378 27.787 60.8378ZM27.787 50.9645C29.8567 50.9645 31.5407 52.6522 31.5407 54.7268C31.5407 56.8014 29.8569 58.4892 27.787 58.4892C25.7171 58.4892 24.0333 56.8014 24.0333 54.7268C24.0333 52.6522 25.7173 50.9645 27.787 50.9645Z" fill="#C3167C"/>
<path d="M32.8743 32.1165H35.2229V34.465H32.8743V32.1165Z" fill="#C3167C"/>
<path d="M32.8743 37.5923H35.2229V39.9409H32.8743V37.5923Z" fill="#C3167C"/>
<path d="M14.3627 47.7631H16.7113V50.1116H14.3627V47.7631Z" fill="#C3167C"/>
<path d="M14.3627 53.2389H16.7113V55.5875H14.3627V53.2389Z" fill="#C3167C"/>
<path d="M40.5759 39.4646L42.9245 39.4576L42.9325 42.1298L40.5839 42.1368L40.5759 39.4646Z" fill="#C3167C"/>
<path d="M66.0548 33.4439C66.6812 33.4437 67.3167 33.3894 67.9545 33.277C70.8136 32.773 73.3111 31.1774 74.9867 28.7842C76.6625 26.391 77.3078 23.4985 76.8036 20.6391L76.3904 18.2965L74.0777 18.7044L74.4909 21.047C74.8861 23.2882 74.3789 25.5577 73.0631 27.437C71.7473 29.3164 69.7881 30.5689 67.5468 30.9641C62.8969 31.7835 58.4493 28.6686 57.6296 24.02L55.603 12.5259C54.7835 7.87711 57.8985 3.42843 62.5472 2.60862C67.1965 1.7899 71.6447 4.90396 72.4644 9.55274L72.8409 11.6885L75.1536 11.2807L74.7771 9.14487C73.7324 3.22081 68.0627 -0.749227 62.1394 0.295891C59.2802 0.799897 56.7827 2.39552 55.1071 4.78872C53.4313 7.18193 52.7861 10.0746 53.2902 12.9338L55.3169 24.428C56.2487 29.7142 60.8627 33.4441 66.0548 33.4439V33.4439Z" fill="#C3167C"/>
<path d="M73.2485 14.0015L73.2552 14.0399L73.6629 16.3529L73.6631 16.3528V16.3529L75.976 15.9451L75.5681 13.6322L75.5612 13.5935L73.2485 14.0015Z" fill="#C3167C"/>
<path d="M61.7445 17.9445L64.0579 17.5358L64.4665 19.8492L62.1532 20.2578L61.7445 17.9445Z" fill="#C3167C"/>
<path d="M66.3716 17.1233L68.6848 16.7147L69.0934 19.028L66.7802 19.4366L66.3716 17.1233Z" fill="#C3167C"/>
<path d="M63.2543 12.9821L65.5677 12.5734L65.9763 14.8866L63.663 15.2952L63.2543 12.9821Z" fill="#C3167C"/>
<path d="M72.8213 45.8511C67.1684 43.7937 60.8962 46.7186 58.8387 52.3712L54.8467 63.3391C53.8537 66.0673 53.9869 69.0279 55.2217 71.6757C56.4566 74.3235 58.6389 76.3286 61.367 77.3216C62.5757 77.7615 63.8297 77.9804 65.0823 77.9804C66.6569 77.9804 68.2289 77.6344 69.7037 76.9466C72.3514 75.7118 74.3565 73.5295 75.3495 70.8014L76.1632 68.5661L73.9562 67.7627L73.1424 69.9981C72.3641 72.1367 70.7904 73.8485 68.711 74.818C66.632 75.7876 64.309 75.8928 62.1703 75.1145C60.0317 74.3362 58.3198 72.7625 57.3503 70.6831C56.3808 68.6036 56.2754 66.2809 57.0537 64.1424L61.0457 53.1746C62.6601 48.739 67.5821 46.4437 72.0179 48.0581C76.4536 49.6727 78.7488 54.5948 77.1344 59.0303L76.3927 61.0683L78.5998 61.8717L79.3414 59.8337C81.3986 54.181 78.4739 47.9084 72.8213 45.8511V45.8511Z" fill="#C3167C"/>
<path d="M75.576 63.3119V63.3118L74.7728 65.5188L76.9799 66.3222L77.7965 64.0785L75.5895 63.2751L75.576 63.3119Z" fill="#C3167C"/>
<path d="M62.8503 63.1362L63.6535 60.9286L65.8612 61.7318L65.0579 63.9394L62.8503 63.1362Z" fill="#C3167C"/>
<path d="M67.2615 64.7346L68.0647 62.5269L70.2723 63.3301L69.4691 65.5378L67.2615 64.7346Z" fill="#C3167C"/>
<path d="M66.6337 59.5929L67.4369 57.3852L69.6446 58.1884L68.8414 60.3961L66.6337 59.5929Z" fill="#C3167C"/>
</g>
<defs>
<clipPath id="clip0_829:7553">
<rect width="80" height="80" fill="white"/>
</clipPath>
</defs>
</svg>

<svg width="80" height="80" fill="none" xmlns="http://www.w3.org/2000/svg"><g clip-path="url(#clip0_829:7553)" fill="#C3167C"><path d="M42.941 22.74c0-.68-.038-1.35-.11-2.01h5.374v-2.35h-5.788a18.32 18.32 0 00-4.992-8.736l5.558-6.338-1.765-1.549-5.573 6.355a18.168 18.168 0 00-10.986-3.685 18.155 18.155 0 00-10.264 3.167L8.833 1.252 7.068 2.801l5.473 6.24a18.345 18.345 0 00-5.508 8.834H1.846v2.349H6.55a18.422 18.422 0 00-.174 2.516v8.871H0v2.348h6.377v12.726H1.846v2.348h4.531v4.648c0 2.379.456 4.653 1.283 6.74H0v2.348h8.792a18.44 18.44 0 004.755 5.443l-4.874 4.635 1.618 1.702 5.255-4.997a18.133 18.133 0 007.939 2.403v7.916h2.349v-7.916a18.134 18.134 0 008.062-2.477l5.864 5.577 1.618-1.702-5.495-5.226a18.452 18.452 0 004.342-4.852h9.826v-2.349h-8.603a18.235 18.235 0 001.493-7.245V49.54h5.264v-2.35h-5.264v-2.476h-2.348v8.967c0 8.803-7.148 15.964-15.934 15.964-8.785 0-15.933-7.161-15.933-15.964V22.74c0-8.803 7.148-15.964 15.933-15.964 8.786 0 15.934 7.161 15.934 15.964v13.957h2.348v-2.232h7.11v-2.349h-7.11V22.74z"/><path d="M27.787 12.454c-4.52 0-8.199 3.684-8.199 8.212 0 4.527 3.678 8.21 8.199 8.21 4.52 0 8.199-3.683 8.199-8.21 0-4.528-3.678-8.212-8.199-8.212zm0 14.074c-3.226 0-5.85-2.63-5.85-5.862 0-3.233 2.624-5.863 5.85-5.863 3.226 0 5.85 2.63 5.85 5.863 0 3.232-2.624 5.862-5.85 5.862zm-5.85 12.919a4.161 4.161 0 00-4.154-4.159 4.161 4.161 0 00-4.154 4.16 4.161 4.161 0 004.154 4.159 4.161 4.161 0 004.154-4.16zm-5.96 0c0-.998.81-1.81 1.806-1.81a1.81 1.81 0 010 3.621 1.81 1.81 0 01-1.805-1.81zm11.81 21.391c3.365 0 6.102-2.742 6.102-6.111 0-3.37-2.737-6.111-6.102-6.111s-6.102 2.741-6.102 6.11c0 3.37 2.737 6.112 6.102 6.112zm0-9.873a3.762 3.762 0 010 7.524 3.762 3.762 0 010-7.524zm5.087-18.848h2.349v2.348h-2.349v-2.349zm0 5.475h2.349v2.349h-2.349v-2.349zM14.363 47.763h2.348v2.349h-2.348v-2.349zm0 5.476h2.348v2.349h-2.348v-2.35zm26.213-13.774l2.349-.007.008 2.672-2.35.007-.007-2.672zm25.479-6.021c.626 0 1.262-.055 1.9-.167a10.83 10.83 0 007.032-4.493 10.832 10.832 0 001.817-8.145l-.414-2.342-2.312.407.413 2.343a8.5 8.5 0 01-1.428 6.39 8.498 8.498 0 01-5.516 3.527c-4.65.82-9.098-2.295-9.917-6.944l-2.027-11.494c-.82-4.649 2.295-9.098 6.944-9.917 4.65-.82 9.098 2.295 9.917 6.944l.377 2.135 2.313-.407-.377-2.136C73.732 3.22 68.063-.75 62.14.295a10.83 10.83 0 00-7.032 4.494 10.832 10.832 0 00-1.817 8.145l2.027 11.494c.932 5.286 5.546 9.016 10.738 9.016z"/><path d="M73.249 14.002l.006.038.408 2.313 2.313-.408-.408-2.313-.007-.038-2.313.408zm-11.504 3.943l2.313-.41.408 2.314-2.313.409-.408-2.313zm4.627-.822l2.313-.408.408 2.313-2.313.409-.408-2.314zm-3.118-4.141l2.314-.409.408 2.314-2.313.408-.409-2.313zm9.567 32.869c-5.653-2.057-11.925.868-13.982 6.52L54.847 63.34a10.831 10.831 0 00.375 8.337 10.833 10.833 0 006.145 5.646c1.209.44 2.463.658 3.715.658a10.93 10.93 0 004.622-1.033A10.833 10.833 0 0075.35 70.8l.813-2.235-2.207-.803-.814 2.235a8.498 8.498 0 01-4.431 4.82 8.499 8.499 0 01-6.54.297 8.498 8.498 0 01-4.82-4.432 8.5 8.5 0 01-.297-6.54l3.992-10.968c1.614-4.436 6.536-6.731 10.972-5.117 4.436 1.615 6.73 6.537 5.116 10.972l-.741 2.038 2.207.804.741-2.038c2.058-5.653-.867-11.926-6.52-13.983z"/><path d="M75.576 63.312l-.803 2.207 2.207.803.816-2.243-2.207-.804-.013.037zm-12.726-.176l.803-2.207 2.208.803-.803 2.207-2.208-.803zm4.411 1.599l.804-2.208 2.207.803-.803 2.208-2.207-.803zm-.627-5.142l.803-2.208 2.208.803-.804 2.208-2.207-.803z"/></g><defs><clipPath id="clip0_829:7553"><path fill="#fff" d="M0 0h80v80H0z"/></clipPath></defs></svg>
